images/themes/sigpacgo/nodpi/ic_hide_green_48dp.svg

<!-- Uploaded to: SVG Repo, www.svgrepo.com, Transformed by: SVG Repo Mixer Tools -->
<svg xmlns="http://www.w3.org/2000/svg" xmlns:xlink="http://www.w3.org/1999/xlink" width="48" height="48" viewBox="0 0 48 48">
<path fill-rule="nonzero" fill="rgb(100%, 47.058824%, 0%)" fill-opacity="1" d="M 11.957031 33.214844 L 7.171875 38 L 10 40.828125 L 15.304688 35.523438 C 17.867188 36.992188 20.789062 38 24 38 C 36 38 44 24 44 24 C 44 24 41.046875 18.839844 36.042969 14.785156 L 40.828125 10 L 38 7.171875 L 32.695312 12.476562 C 30.132812 11.007812 27.210938 10 24 10 C 12 10 4 24 4 24 C 4 24 6.953125 29.160156 11.957031 33.214844 Z M 16 24 C 16 19.582031 19.582031 16 24 16 C 25.484375 16 26.867188 16.410156 28.058594 17.113281 L 25.023438 20.148438 C 24.695312 20.0625 24.355469 20 24 20 C 21.792969 20 20 21.792969 20 24 C 20 24.355469 20.0625 24.695312 20.148438 25.023438 L 17.113281 28.058594 C 16.410156 26.867188 16 25.484375 16 24 Z M 32 24 C 32 28.417969 28.417969 32 24 32 C 22.515625 32 21.132812 31.589844 19.941406 30.886719 L 22.976562 27.851562 C 23.304688 27.9375 23.644531 28 24 28 C 26.207031 28 28 26.207031 28 24 C 28 23.644531 27.9375 23.304688 27.851562 22.976562 L 30.886719 19.941406 C 31.589844 21.132812 32 22.515625 32 24 Z M 32 24 "/>
</svg>

<!DOCTYPE svg PUBLIC "-//W3C//DTD SVG 1.1//EN" "http://www.w3.org/Graphics/SVG/1.1/DTD/svg11.dtd">
<!-- Uploaded to: SVG Repo, www.svgrepo.com, Transformed by: SVG Repo Mixer Tools -->
<svg width="800px" height="800px" viewBox="0 0 48 48" xmlns="http://www.w3.org/2000/svg" fill="#ff7800">
<g id="SVGRepo_bgCarrier" stroke-width="0"/>
<g id="SVGRepo_tracerCarrier" stroke-linecap="round" stroke-linejoin="round"/>
<g id="SVGRepo_iconCarrier"> <path d="M0 0h48v48H0z" fill="none"/> <g id="Shopicon"> <path d="M11.957,33.214L7.171,38L10,40.828l5.305-5.305C17.867,36.992,20.788,38,24,38c12,0,20-14,20-14s-2.953-5.159-7.957-9.214 L40.829,10L38,7.172l-5.305,5.305C30.133,11.008,27.212,10,24,10C12,10,4,24,4,24S6.953,29.159,11.957,33.214z M16,24 c0-4.418,3.582-8,8-8c1.483,0,2.867,0.411,4.058,1.114l-3.035,3.035C24.694,20.062,24.356,20,24,20c-2.206,0-4,1.794-4,4 c0,0.356,0.062,0.694,0.149,1.023l-3.035,3.035C16.411,26.867,16,25.483,16,24z M32,24c0,4.418-3.582,8-8,8 c-1.483,0-2.867-0.411-4.058-1.114l3.035-3.035C23.306,27.938,23.644,28,24,28c2.206,0,4-1.794,4-4 c0-0.356-0.062-0.694-0.149-1.023l3.035-3.035C31.589,21.133,32,22.517,32,24z"/> </g> </g>
</svg>
